X: 1464
T: Girls Will You Take Him?
M:C|
L:1/8
N:"collected by McNamara"
B:O'Neill's 1464
Z:"Transcribed by Bob Safranek, rjs@gsp.org"
K:D
D3 E FGAF | D2 (AF) GECE | D3 E    FGAB | cAdB    cAGE |
D3 E FGAF | D2 (AF) GECE | D3 E    FGAB | cAdB    cAGB ||
Addc dfed | AcBd    cAGB | Adde    fdeB | cAdB    cAGE |
Addc dfed | AcBd    cdeg | agef {a}gfed | cAdB {d}cAGE |]


